X:7430
T:The Trooper and the Maid
O:england
M:2/4
L:1/8
R:Reel
K:G
D|G2G>A|Bd de/f/|gB B/A/G/A/|BA AB|G2G>A|Bd de/f/|gB AB/A/|G3::
c|Bd ga/g/|fe e/f/g/e/|dB AG/A/|BA AG/A/|Bd ga/g/|fe e/f/g/e/|dB AG/A/|B
G G:|
